X: 217
T:Fr. John  Angus Rankin of Glendale
R:March
Z:added by Alf warnock alf0@rogers.com - www.alfwarnock.info/alfs
M:2/4
L:1/16
K:Bm
C|"Bm"B,2B2 B2A<B|"A"A>B c<A B2B<c|"D"A2F2 F>^G A<F|"F#m"E>D C<B, A,>B, C<A,|
"Bm"B,2B2 B2A<B|"A"A>B c<A B2B<c|"D"A2E<A "A"F>E D<C|"Bm"B,4 B,3:|
c|\
"A"A2a2 a2^g<f|e>d c<B A>B c<A|"Bm"B2b2 b2a<f|"D"a>f e<c "Bm"B2B<c|
"A"A2a2 a2^g<f|e>d c<B A>B c<A|"A"a>f e<c A>B c<e|a>f e<c "Bm"B2B:|

